dnspod.svg

<svg viewBox="0 0 8 8" xmlns="http://www.w3.org/2000/svg"><defs/><path d="M6.24052 3.39393C6.31378 3.40059 6.3937 3.42057 6.44698 3.44721C6.72004 3.56043 6.70006 3.84016 6.68008 3.94672C6.65344 4.05328 6.62014 4.1998 6.53356 4.36631C6.43366 4.55945 6.2272 4.68599 6.04071 4.69265C6.00075 4.69265 5.97411 4.69931 5.91417 4.69931C5.86089 4.69931 5.80761 4.69931 5.76765 4.69265C5.40134 4.65269 5.3081 4.31968 5.3747 4.09324C5.42798 3.92008 5.40134 4.01332 5.46128 3.81352C5.52123 3.61371 5.67441 3.44721 5.95413 3.40725C6.06735 3.38727 6.13396 3.38727 6.24052 3.39393ZM4.16256 3.43389L4.06932 3.75358L3.35669 3.75358L3.78294 4.15318C3.86952 4.2331 3.90282 4.35965 3.86286 4.46621C3.8229 4.57943 3.70968 4.65935 3.58314 4.65935L2.66404 4.65935L2.75728 4.34633L3.48989 4.34633L3.06365 3.94672C2.97707 3.8668 2.94377 3.74026 2.98373 3.63369C3.02369 3.51381 3.13691 3.43389 3.26345 3.43389L4.16256 3.43389ZM1.1189 3.43389C1.15886 3.44055 1.1855 3.44721 1.21214 3.45387C1.44524 3.52047 1.4519 3.71362 1.44524 3.77356C1.43858 3.82684 1.36532 4.1998 1.27208 4.35965C1.15886 4.55279 1.019 4.63937 0.879134 4.65269C0.845833 4.65269 0.772572 4.65935 0.67267 4.65935L0 4.65935L0 4.65935L0.313025 3.62037L0.246424 3.48717L0.139862 3.30069C0.139862 3.30069 0.772572 3.36729 1.1189 3.43389ZM2.02467 3.44721L2.09127 3.60039L2.31772 4.0999L2.51086 3.44721L2.88382 3.44721L2.55082 4.59941L2.53084 4.65269L2.19783 4.65269L2.15121 4.53947L1.89813 3.99334L1.70499 4.65269L1.32536 4.65269L1.67169 3.49383L1.68501 3.44721L2.02467 3.44721ZM4.82858 3.43389C4.96844 3.43389 5.04836 3.45387 5.11496 3.48051C5.18156 3.51381 5.22818 3.54711 5.28146 3.62037C5.28812 3.62703 5.28812 3.63369 5.29478 3.64035C5.33474 3.71362 5.34806 3.81352 5.3414 3.88678C5.33474 3.96004 5.30144 4.0999 5.22152 4.21312C5.1416 4.32635 4.9751 4.40627 4.71535 4.40627L4.36237 4.40627L4.28911 4.64603L3.93612 4.64603L4.09596 4.0999L4.10928 4.0999L4.10928 4.10656L4.60213 4.10656C4.67539 4.10656 4.74199 4.10656 4.81525 4.08658C4.88852 4.0666 4.92182 4.0333 4.94846 3.99334C4.9751 3.94006 4.98842 3.87346 4.9751 3.82684C4.95512 3.78022 4.89518 3.74692 4.82192 3.74692L4.19587 3.74692L4.28245 3.43389L4.82858 3.43389ZM7.43934 3.43389C7.59252 3.43389 7.69242 3.44721 7.76568 3.46719C7.99212 3.53379 8.00544 3.72694 7.99878 3.78022C7.99212 3.82684 7.91886 4.19314 7.82562 4.35299C7.71906 4.53947 7.5792 4.63271 7.43934 4.63937C7.40604 4.63937 7.33277 4.64603 7.23287 4.64603L6.57352 4.64603L6.57352 4.64603L6.93317 3.43389L7.43934 3.43389L7.43934 3.43389ZM6.14728 3.67365C6.07401 3.67365 6.06069 3.67365 6.02739 3.68698C5.99409 3.7003 5.87421 3.72694 5.82093 3.9001C5.76765 4.07326 5.78763 4.01332 5.74767 4.11988C5.70771 4.21978 5.68773 4.40627 5.91417 4.41959C5.93415 4.41959 5.95413 4.41959 5.98743 4.41293C6.06735 4.39961 6.14728 4.34633 6.18724 4.27306C6.24052 4.1665 6.30046 3.98002 6.31378 3.9334C6.3271 3.8668 6.3271 3.80686 6.30046 3.76024C6.27382 3.71362 6.20722 3.67365 6.14728 3.67365ZM7.20623 3.72694L7.01975 4.35299L7.24619 4.35299L7.24619 4.35299C7.34609 4.35299 7.446 4.33301 7.49928 4.2331C7.55256 4.13986 7.6125 3.9334 7.61916 3.88678C7.63248 3.8335 7.6125 3.74692 7.52592 3.7336C7.43934 3.72694 7.33277 3.72694 7.20623 3.72694ZM0.65935 3.71362L0.459547 4.35299L0.692651 4.35299L0.692651 4.35299C0.792552 4.35299 0.892454 4.33301 0.952395 4.22644C1.00568 4.12654 1.06562 3.92008 1.07894 3.87346C1.09226 3.81352 1.07228 3.7336 0.985695 3.72028C0.892454 3.71362 0.785892 3.71362 0.65935 3.71362Z" fill="#2e95ff"/></svg>

<svg viewBox="0 0 8 8" xmlns="http://www.w3.org/2000/svg"><path d="M6.24 3.394a.626.626 0 0 1 .207.053c.273.113.253.393.233.5-.027.106-.06.253-.146.42a.61.61 0 0 1-.493.326c-.04 0-.067.006-.127.006-.053 0-.106 0-.146-.006-.367-.04-.46-.373-.393-.6.053-.173.026-.08.086-.28s.213-.366.493-.406c.113-.02.18-.02.287-.013Zm-2.077.04-.094.32h-.712l.426.4c.087.08.12.206.08.312a.297.297 0 0 1-.28.193h-.919l.093-.313h.733l-.426-.4a.294.294 0 0 1 .2-.513h.899Zm-3.044 0c.04.007.067.013.093.02.233.066.24.26.233.32-.006.053-.08.426-.173.586-.113.193-.253.28-.393.293-.033 0-.106.006-.206.006H0L.313 3.62l-.067-.133-.106-.186s.633.066.979.133Zm.906.013.066.153.227.5.193-.653h.373L2.55 4.6l-.02.054h-.333l-.047-.114-.253-.546-.193.66h-.38l.347-1.16.013-.046h.34Zm2.804-.013c.14 0 .22.02.286.047a.409.409 0 0 1 .166.14c.007.006.007.013.014.02.04.073.053.173.046.246a.73.73 0 0 1-.12.326c-.08.113-.246.193-.506.193h-.353l-.073.24h-.353l.16-.546h.013v.007h.493c.073 0 .14 0 .213-.02a.21.21 0 0 0 .133-.094.253.253 0 0 0 .027-.166c-.02-.047-.08-.08-.153-.08h-.626l.086-.313h.547Zm2.61 0c.154 0 .253.013.327.033.226.067.24.26.233.313-.007.047-.08.413-.173.573-.107.186-.247.28-.387.286-.033 0-.106.007-.206.007h-.66l.36-1.212h.506Zm-1.292.24c-.073 0-.086 0-.12.013-.033.013-.153.04-.206.213-.053.173-.033.113-.073.22-.04.1-.06.286.166.3.02 0 .04 0 .073-.007a.289.289 0 0 0 .2-.14c.054-.106.113-.293.127-.34.013-.066.013-.126-.014-.173a.192.192 0 0 0-.153-.086Zm1.06.053-.187.626h.226c.1 0 .2-.02.253-.12.054-.093.114-.3.12-.346.013-.054-.006-.14-.093-.153-.087-.007-.193-.007-.32-.007ZM.658 3.714l-.2.639h.234c.1 0 .2-.02.26-.127.053-.1.113-.306.126-.353.013-.06-.007-.14-.093-.153-.094-.006-.2-.006-.327-.006Z" fill="#2e95ff"/></svg>
